src/assets/img/breeder-page/injection.svg

<?xml version="1.0" encoding="UTF-8"?>
<svg width="34px" height="42px" viewBox="0 0 34 42" version="1.1" xmlns="http://www.w3.org/2000/svg" xmlns:xlink="http://www.w3.org/1999/xlink">
    <!-- Generator: Sketch 55.2 (78181) - https://sketchapp.com -->
    <title>injection@1,5x</title>
    <desc>Created with Sketch.</desc>
    <g id="Home" stroke="none" stroke-width="1" fill="none" fill-rule="evenodd">
        <g id="Breeder's_Card_Desktop" transform="translate(-663.000000, -933.000000)" fill-rule="nonzero">
            <g id="Group-14" transform="translate(575.000000, 909.000000)">
                <g id="injection" transform="translate(88.000000, 24.000000)">
                    <path d="M33.8134087,6.66522596 L27.3280721,0.179889423 C27.0881923,-0.0599903846 26.6993173,-0.0599903846 26.4595192,0.179889423 C26.2196394,0.419769231 26.2196394,0.808644231 26.4595192,1.04844231 L27.4148702,2.003875 L22.7245048,6.69424038 L20.3793221,4.34905769 C20.1394423,4.10917788 19.7505673,4.10917788 19.5107692,4.34905769 C19.2708894,4.5889375 19.2708894,4.9778125 19.5107692,5.21761058 L20.4662019,6.17304327 L17.2957019,9.34354327 C17.0558221,9.58342308 17.0558221,9.97229808 17.2957019,10.2120962 C17.5355817,10.451976 17.9244567,10.451976 18.1642548,10.2120962 L21.3347548,7.04159615 L26.9515385,12.6583798 L12.7419087,26.8680913 L8.61818269,26.8680913 L7.12496154,25.3748702 L7.12496154,21.2511442 L16.2099087,12.1661971 C16.4497885,11.9263173 16.4497885,11.5374423 16.2099087,11.2976442 C15.9700288,11.0577644 15.5811538,11.0577644 15.3413558,11.2976442 L6.07668269,20.5625625 C5.96144231,20.6777212 5.89679327,20.8339087 5.89679327,20.9967981 L5.89679327,25.3748702 L3.29726442,27.9744808 C3.05738462,28.2143606 3.05738462,28.6032356 3.29726442,28.8430337 L3.78944712,29.3352163 L1.90759615,31.2172308 C1.68398077,31.4407644 1.66910577,31.8101875 1.87490385,32.0505577 C2.10456731,32.3187163 2.52629808,32.3356346 2.77606731,32.0857837 L4.658,30.203851 L5.15018269,30.6960337 C5.38679327,30.9326442 5.782125,30.9326442 6.01873558,30.6960337 L8.61826442,28.0965048 L12.9963365,28.0965048 C13.159226,28.0965048 13.3154952,28.031774 13.4305721,27.9166154 L27.8202548,13.5270962 L28.7756875,14.4825288 C29.0255385,14.7323798 29.4471875,14.7155433 29.6769327,14.4473029 C29.8828125,14.2069327 29.8679375,13.8375096 29.6442404,13.613976 L27.2990577,11.2687933 L31.9894231,6.57842788 L32.9448558,7.53386058 C33.1947067,7.78362981 33.6163558,7.766875 33.846101,7.49863462 C34.0519808,7.25818269 34.037024,6.88884135 33.8134087,6.66522596 Z M5.5845,29.3931635 L4.60013462,28.4087981 L6.511,26.4979327 L7.49544712,27.4822981 L5.5845,29.3931635 Z M26.4305048,10.4001587 L23.5931394,7.56279327 L28.2834231,2.87242788 L31.1207885,5.70979327 L26.4305048,10.4001587 Z" id="Shape" fill="#0E0B4D"></path>
                    <path d="M22.6954904,13.150726 L20.8425721,11.2978077 C20.6026923,11.0579279 20.2138173,11.0579279 19.9740192,11.2978077 C19.7341394,11.5376875 19.7341394,11.9265625 19.9740192,12.1663606 L21.8269375,14.0192788 C22.0767885,14.2691298 22.4984375,14.2522933 22.7281827,13.9840529 C22.9340625,13.7436827 22.9191875,13.3742596 22.6954904,13.150726 Z" id="Path" fill="#0E0B4D"></path>
                    <path d="M19.9160721,15.9300625 L18.0631538,14.0771442 C17.8233558,13.8372644 17.4344808,13.8372644 17.194601,14.0771442 C16.9547212,14.317024 16.9547212,14.705899 17.194601,14.9456971 L19.0475192,16.7986154 C19.2973702,17.0484663 19.7190192,17.0316298 19.9487644,16.7633894 C20.1546442,16.523101 20.1396875,16.1536779 19.9160721,15.9300625 Z" id="Path" fill="#0E0B4D"></path>
                    <path d="M17.1366538,18.7096442 L15.2836538,16.856726 C15.043774,16.6168462 14.654899,16.6168462 14.415101,16.856726 C14.1752212,17.0966058 14.1752212,17.4854808 14.415101,17.7252788 L16.2680192,19.5781971 C16.3879183,19.6981779 16.5451683,19.7580865 16.7022548,19.7580865 C17.2393894,19.7580865 17.5150673,19.087976 17.1366538,18.7096442 Z" id="Path" fill="#0E0B4D"></path>
                    <path d="M14.376524,21.469774 L12.5236058,19.6168558 C12.283726,19.376976 11.894851,19.376976 11.6550529,19.6168558 C11.4151731,19.8567356 11.4151731,20.2456106 11.6550529,20.4854087 L13.5079712,22.3383269 C13.6278702,22.4583077 13.7851202,22.5182163 13.9422067,22.5182163 C14.4792596,22.5182163 14.7549375,21.8481058 14.376524,21.469774 Z" id="Path" fill="#0E0B4D"></path>
                    <path d="M11.6163125,24.2299038 L9.76339423,22.3769856 C9.52351442,22.1371058 9.13463942,22.1371058 8.89484135,22.3769856 C8.65496154,22.6168654 8.65496154,23.0057404 8.89484135,23.2455385 L10.7477596,25.0984567 C10.9975288,25.3483077 11.4192596,25.3314712 11.6490048,25.0632308 C11.8548029,24.8228606 11.8399279,24.4534375 11.6163125,24.2299038 Z" id="Path" fill="#0E0B4D"></path>
                    <path d="M3.09359135,34.9867356 C2.97892308,34.8207404 2.79004327,34.7216827 2.58825,34.7216827 C2.38645673,34.7216827 2.19757692,34.8207404 2.08290865,34.9867356 C1.73661538,35.4882356 0.00866346154,38.051149 0.00866346154,39.2665673 C0.00866346154,40.6889279 1.16588942,41.8461538 2.58825,41.8461538 C4.01061058,41.8461538 5.16783654,40.6889279 5.16783654,39.2665673 C5.16775481,38.051149 3.43988462,35.4882356 3.09359135,34.9867356 Z M2.58825,40.6177404 C1.84319231,40.6177404 1.23707692,40.0115433 1.23707692,39.2665673 C1.23707692,38.8190913 1.87187981,37.5905962 2.58833173,36.4521683 C3.30470192,37.5901058 3.93942308,38.8185192 3.93942308,39.2665673 C3.93942308,40.011625 3.33330769,40.6177404 2.58825,40.6177404 Z" id="Shape" fill="#645FC9"></path>
                </g>
            </g>
        </g>
    </g>
</svg>

<svg xmlns="http://www.w3.org/2000/svg" width="34" height="42" viewBox="0 0 34 42">
    <g fill="#0E0B4D" fill-rule="nonzero" opacity=".5">
        <path d="M33.813 6.665L27.328.18a.614.614 0 1 0-.868.868l.955.956-4.69 4.69-2.346-2.345a.614.614 0 1 0-.868.869l.955.955-3.17 3.17a.614.614 0 1 0 .868.87l3.17-3.171 5.618 5.616-14.21 14.21H8.618l-1.493-1.493V21.25l9.085-9.085a.614.614 0 1 0-.869-.868l-9.264 9.265a.614.614 0 0 0-.18.434v4.378l-2.6 2.6a.614.614 0 0 0 0 .868l.492.492-1.881 1.882a.62.62 0 0 0-.033.834.62.62 0 0 0 .901.035l1.882-1.882.492.492a.62.62 0 0 0 .869 0l2.6-2.6h4.377c.163 0 .32-.064.435-.18l14.39-14.389.955.956a.62.62 0 0 0 .9-.036.62.62 0 0 0-.032-.833L27.3 11.269l4.69-4.69.956.955a.62.62 0 0 0 .901-.035.62.62 0 0 0-.033-.834zM5.584 29.393L4.6 28.41l1.911-1.911.984.984-1.91 1.911zM26.431 10.4l-2.838-2.837 4.69-4.69 2.838 2.837-4.69 4.69z"/>
        <path d="M22.695 13.15l-1.852-1.852a.614.614 0 1 0-.869.868l1.853 1.853a.62.62 0 0 0 .901-.035.62.62 0 0 0-.033-.833zM19.916 15.93l-1.853-1.853a.614.614 0 1 0-.868.869l1.853 1.853a.62.62 0 0 0 .9-.036.62.62 0 0 0-.032-.833zM17.137 18.71l-1.853-1.853a.614.614 0 1 0-.869.868l1.853 1.853c.12.12.277.18.434.18.537 0 .813-.67.435-1.048zM14.377 21.47l-1.853-1.853a.614.614 0 1 0-.869.868l1.853 1.853c.12.12.277.18.434.18.537 0 .813-.67.435-1.048zM11.616 24.23l-1.853-1.853a.614.614 0 1 0-.868.869l1.853 1.852a.62.62 0 0 0 .901-.035.62.62 0 0 0-.033-.833zM3.094 34.987a.614.614 0 0 0-1.011 0c-.346.501-2.074 3.064-2.074 4.28a2.583 2.583 0 0 0 2.58 2.58 2.583 2.583 0 0 0 2.579-2.58c0-1.216-1.728-3.779-2.074-4.28zm-.506 5.63a1.353 1.353 0 0 1-1.35-1.35c0-.448.634-1.676 1.35-2.815.717 1.138 1.351 2.367 1.351 2.815 0 .745-.606 1.35-1.35 1.35z"/>
    </g>
</svg>
